svg/s/IN.svg

<svg width="16" height="12" viewBox="0 0 16 12" fill="none" xmlns="http://www.w3.org/2000/svg">
<mask id="mask0" mask-type="alpha" maskUnits="userSpaceOnUse" x="0" y="0" width="16" height="12">
<rect width="16" height="12" fill="white"/>
</mask>
<g mask="url(#mask0)">
<path fill-rule="evenodd" clip-rule="evenodd" d="M0 0V12H16V0H0Z" fill="#F7FCFF"/>
<mask id="mask1" mask-type="alpha" maskUnits="userSpaceOnUse" x="0" y="0" width="16" height="12">
<path fill-rule="evenodd" clip-rule="evenodd" d="M0 0V12H16V0H0Z" fill="white"/>
</mask>
<g mask="url(#mask1)">
<path fill-rule="evenodd" clip-rule="evenodd" d="M0 0V4H16V0H0Z" fill="#FF8C1A"/>
<path fill-rule="evenodd" clip-rule="evenodd" d="M0 8V12H16V8H0Z" fill="#5EAA22"/>
<path fill-rule="evenodd" clip-rule="evenodd" d="M6 6C6 7.10457 6.89543 8 8 8C9.10457 8 10 7.10457 10 6C10 4.89543 9.10457 4 8 4C6.89543 4 6 4.89543 6 6ZM9.5 6C9.5 6.82843 8.82843 7.5 8 7.5C7.17157 7.5 6.5 6.82843 6.5 6C6.5 5.17157 7.17157 4.5 8 4.5C8.82843 4.5 9.5 5.17157 9.5 6Z" fill="#3D58DB"/>
<path fill-rule="evenodd" clip-rule="evenodd" d="M7.99725 6.43035L7.58028 7.96722L7.82446 6.39363L6.81844 7.62803L7.68154 6.28979L6.26042 7.00829L7.59321 6.1368L6.00272 6.21516L7.57475 5.96112L6.08989 5.38578L7.62934 5.79311L6.50686 4.66357L7.74754 5.66183L7.18153 4.17339L7.90893 5.58998L7.99725 4L8.08558 5.58998L8.81297 4.17339L8.24696 5.66183L9.48765 4.66357L8.36517 5.79311L9.90462 5.38578L8.41976 5.96112L9.99179 6.21516L8.40129 6.1368L9.73409 7.00829L8.31296 6.28979L9.17607 7.62803L8.17005 6.39363L8.41422 7.96722L7.99725 6.43035Z" fill="#3D58DB"/>
</g>
</g>
</svg>

<svg width="16" height="12" fill="none" xmlns="http://www.w3.org/2000/svg">
  <mask id="a" maskUnits="userSpaceOnUse" x="0" y="0" width="16" height="12">
    <path fill="#fff" d="M0 0h16v12H0z"/>
  </mask>
  <g mask="url(#a)">
    <path fill-rule="evenodd" clip-rule="evenodd" d="M0 0v12h16V0H0z" fill="#F7FCFF"/>
    <mask id="b" maskUnits="userSpaceOnUse" x="0" y="0" width="16" height="12">
      <path fill-rule="evenodd" clip-rule="evenodd" d="M0 0v12h16V0H0z" fill="#fff"/>
    </mask>
    <g mask="url(#b)" fill-rule="evenodd" clip-rule="evenodd">
      <path d="M0 0v4h16V0H0z" fill="#FF8C1A"/>
      <path d="M0 8v4h16V8H0z" fill="#5EAA22"/>
      <path d="M6 6a2 2 0 104 0 2 2 0 00-4 0zm3.5 0a1.5 1.5 0 11-3 0 1.5 1.5 0 013 0z" fill="#3D58DB"/>
      <path d="M7.997 6.43L7.58 7.967l.244-1.573-1.006 1.234.864-1.338-1.422.718 1.333-.871-1.59.078 1.572-.254-1.485-.575 1.54.407-1.123-1.13 1.24.999-.566-1.489.728 1.417L7.997 4l.089 1.59.727-1.417-.566 1.489 1.24-.998-1.122 1.13 1.54-.408-1.485.575 1.572.254-1.59-.078 1.332.871-1.421-.718.863 1.338L8.17 6.394l.244 1.573-.417-1.537z" fill="#3D58DB"/>
    </g>
  </g>
</svg>
